svg/fluentui-system-icons/ic_fluent_person_lightbulb_20_regular.svg

<svg width="20" height="20" viewBox="0 0 20 20" fill="none" xmlns="http://www.w3.org/2000/svg">
<path d="M6 6C6 3.79086 7.79086 2 10 2C12.2091 2 14 3.79086 14 6C14 8.20914 12.2091 10 10 10C7.79086 10 6 8.20914 6 6ZM10 3C8.34315 3 7 4.34315 7 6C7 7.65685 8.34315 9 10 9C11.6569 9 13 7.65685 13 6C13 4.34315 11.6569 3 10 3ZM3 13C3 11.8869 3.90315 11 5.00873 11L11.5351 11C11.3561 11.3095 11.2173 11.6452 11.126 12L5.00873 12C4.44786 12 4 12.4467 4 13C4 14.3088 4.62226 15.2837 5.67262 15.9534C6.74318 16.636 8.26489 17 10 17C10.9107 17 11.7626 16.8997 12.5213 16.7057L12.7177 17.6876C11.8743 17.8979 10.9538 18 10 18C8.14526 18 6.41697 17.614 5.13499 16.7966C3.83281 15.9663 3 14.6912 3 13ZM18 13C18 14.0229 17.4881 14.9262 16.7065 15.4677L16.6 16H13.4L13.2935 15.4677C12.5119 14.9262 12 14.0229 12 13C12 11.3431 13.3431 10 15 10C16.6569 10 18 11.3431 18 13ZM13.6 17L13.8392 18.1961C13.9327 18.6635 14.3431 19 14.8198 19H15.1802C15.6569 19 16.0673 18.6635 16.1608 18.1961L16.4 17H13.6Z" fill="#212121"/>
</svg>

<svg xmlns="http://www.w3.org/2000/svg" width="20" height="20"><path d="M6 6a4 4 0 1 1 8 0 4 4 0 0 1-8 0Zm4-3a3 3 0 1 0 0 6 3 3 0 0 0 0-6ZM3 13c0-1.113.903-2 2.009-2h6.526a3.97 3.97 0 0 0-.409 1H5.009C4.448 12 4 12.447 4 13c0 1.309.622 2.284 1.673 2.953C6.743 16.636 8.265 17 10 17c.91 0 1.763-.1 2.521-.294l.197.982c-.844.21-1.764.312-2.718.312-1.855 0-3.583-.386-4.865-1.203C3.833 15.967 3 14.69 3 13Zm15 0a2.997 2.997 0 0 1-1.294 2.468L16.6 16h-3.2l-.107-.532A3 3 0 1 1 18 13Zm-4.4 4 .24 1.196a1 1 0 0 0 .98.804h.36a1 1 0 0 0 .98-.804L16.4 17h-2.8Z"/></svg>
